gama.ui.shared/icons_svg/dark/display/fullscreen.exit.svg

<svg height="25" viewBox="-633.831 -3314.16 25 25" width="25" xmlns="http://www.w3.org/2000/svg"><g fill="none"><circle cx="-621.331" cy="-3301.66" fill="#666" r="12"/><circle cx="-621.331" cy="-3301.66" r="12" stroke="#fff" stroke-linecap="round" stroke-linejoin="round" stroke-width=".25"/><path d="m-624.2129-3299.3367h-3.7214c-.21756 0-.3885-.171-.3885-.3885s.17094-.3885.3885-.3885h4.66146c.21754 0 .38844.171.38844.3885v4.6615c0 .2177-.1709.3884-.38844.3884-.21756 0-.38846-.1707-.38846-.3884v-3.7213l-4.0011 3.9932c-.1554.1554-.3962.1554-.5516 0-.1554-.1552-.1554-.3962 0-.5516l4.0011-4.0011zm.5516-5.2133v-3.7213c0-.2175.1709-.3884.38846-.3884.21754 0 .38844.1709.38844.3884v4.6615c0 .2176-.1709.3885-.38844.3885h-4.66146c-.21756 0-.3885-.1709-.3885-.3885 0-.2175.17094-.3884.3885-.3884h3.7214l-3.99335-4.0011c-.15535-.1477-.15535-.3963 0-.5437.14765-.1556.39625-.1556.54385 0l4.0011 4.001zm5.2131.5518h3.7214c.21756 0 .3885.1709.3885.3884 0 .2176-.17094.3885-.3885.3885h-4.6615c-.2175 0-.3884-.1709-.3884-.3885v-4.6615c0-.2175.1709-.3884.3884-.3884.2176 0 .3885.1709.3885.3884v3.7213l4.0011-3.993c.1554-.1556.3962-.1556.5516 0 .1554.1552.1554.396 0 .5514l-4.0011 4.0011zm0 4.6615 4.0011 4.0011c.1554.1553.1554.3962 0 .5516s-.3962.1554-.5516 0l-4.0011-4.001v3.737c0 .2174-.1709.3883-.3885.3883-.2175 0-.3884-.1709-.3884-.3883v-4.6772c0-.2175.1709-.3885.3884-.3885h4.6615c.21756 0 .3885.171.3885.3885s-.17094.3885-.3885.3885z" fill="#e3e6e1"/></g></svg>

<?xml version="1.0" encoding="UTF-8" standalone="no"?>
<!DOCTYPE svg PUBLIC "-//W3C//DTD SVG 1.1//EN" "http://www.w3.org/Graphics/SVG/1.1/DTD/svg11.dtd">
<svg xmlns="http://www.w3.org/2000/svg" xmlns:xl="http://www.w3.org/1999/xlink" version="1.1" xmlns:dc="http://purl.org/dc/elements/1.1/" viewBox="-633.8306 -3314.1597 25.000035 25" width="25.000035" height="25">
  <defs/>
  <g id="SOURCES" stroke-opacity="1" fill="none" stroke="none" fill-opacity="1" stroke-dasharray="none">
    <title>SOURCES</title>
    <g id="SOURCES_Dark">
      <title>Dark</title>
      <g id="Graphic_11482">
        <circle cx="-621.33055" cy="-3301.6597" r="12.0000278184555" fill="#666"/>
        <circle cx="-621.33055" cy="-3301.6597" r="12.0000278184555" stroke="white" stroke-linecap="round" stroke-linejoin="round" stroke-width=".2500004"/>
      </g>
      <g id="Graphic_11481">
        <path d="M -624.2129 -3299.3367 L -627.9343 -3299.3367 C -628.15186 -3299.3367 -628.3228 -3299.5077 -628.3228 -3299.7252 C -628.3228 -3299.9427 -628.15186 -3300.1137 -627.9343 -3300.1137 L -623.27284 -3300.1137 C -623.0553 -3300.1137 -622.8844 -3299.9427 -622.8844 -3299.7252 L -622.8844 -3295.0637 C -622.8844 -3294.846 -623.0553 -3294.6753 -623.27284 -3294.6753 C -623.4904 -3294.6753 -623.6613 -3294.846 -623.6613 -3295.0637 L -623.6613 -3298.785 L -627.6624 -3294.7918 C -627.8178 -3294.6364 -628.0586 -3294.6364 -628.214 -3294.7918 C -628.3694 -3294.947 -628.3694 -3295.188 -628.214 -3295.3434 L -624.2129 -3299.3445 Z M -623.6613 -3304.55 L -623.6613 -3308.2713 C -623.6613 -3308.4888 -623.4904 -3308.6597 -623.27284 -3308.6597 C -623.0553 -3308.6597 -622.8844 -3308.4888 -622.8844 -3308.2713 L -622.8844 -3303.6098 C -622.8844 -3303.3922 -623.0553 -3303.2213 -623.27284 -3303.2213 L -627.9343 -3303.2213 C -628.15186 -3303.2213 -628.3228 -3303.3922 -628.3228 -3303.6098 C -628.3228 -3303.8273 -628.15186 -3303.9982 -627.9343 -3303.9982 L -624.2129 -3303.9982 L -628.20625 -3307.9993 C -628.3616 -3308.147 -628.3616 -3308.3956 -628.20625 -3308.543 C -628.0586 -3308.6986 -627.81 -3308.6986 -627.6624 -3308.543 L -623.6613 -3304.542 Z M -618.4482 -3303.9982 L -614.7268 -3303.9982 C -614.50924 -3303.9982 -614.3383 -3303.8273 -614.3383 -3303.6098 C -614.3383 -3303.3922 -614.50924 -3303.2213 -614.7268 -3303.2213 L -619.3883 -3303.2213 C -619.6058 -3303.2213 -619.7767 -3303.3922 -619.7767 -3303.6098 L -619.7767 -3308.2713 C -619.7767 -3308.4888 -619.6058 -3308.6597 -619.3883 -3308.6597 C -619.1707 -3308.6597 -618.9998 -3308.4888 -618.9998 -3308.2713 L -618.9998 -3304.55 L -614.9987 -3308.543 C -614.8433 -3308.6986 -614.6025 -3308.6986 -614.4471 -3308.543 C -614.2917 -3308.3878 -614.2917 -3308.147 -614.4471 -3307.9916 L -618.4482 -3303.9905 Z M -618.4482 -3299.3367 L -614.4471 -3295.3356 C -614.2917 -3295.1803 -614.2917 -3294.9394 -614.4471 -3294.784 C -614.6025 -3294.6286 -614.8433 -3294.6286 -614.9987 -3294.784 L -618.9998 -3298.785 L -618.9998 -3295.048 C -618.9998 -3294.8306 -619.1707 -3294.6597 -619.3883 -3294.6597 C -619.6058 -3294.6597 -619.7767 -3294.8306 -619.7767 -3295.048 L -619.7767 -3299.7252 C -619.7767 -3299.9427 -619.6058 -3300.1137 -619.3883 -3300.1137 L -614.7268 -3300.1137 C -614.50924 -3300.1137 -614.3383 -3299.9427 -614.3383 -3299.7252 C -614.3383 -3299.5077 -614.50924 -3299.3367 -614.7268 -3299.3367 Z" fill="#e3e6e1"/>
      </g>
    </g>
  </g>
</svg>
